storage/app/icons/phosphoricons/regular/tree-structure.svg

<svg xmlns="http://www.w3.org/2000/svg" fill="currentColor" viewBox="0 0 256 256"><path d="M160 112h48a16 16 0 0 0 16-16V48a16 16 0 0 0-16-16h-48a16 16 0 0 0-16 16v16h-16a24 24 0 0 0-24 24v32H72v-8a16 16 0 0 0-16-16H24a16 16 0 0 0-16 16v32a16 16 0 0 0 16 16h32a16 16 0 0 0 16-16v-8h32v32a24 24 0 0 0 24 24h16v16a16 16 0 0 0 16 16h48a16 16 0 0 0 16-16v-48a16 16 0 0 0-16-16h-48a16 16 0 0 0-16 16v16h-16a8 8 0 0 1-8-8V88a8 8 0 0 1 8-8h16v16a16 16 0 0 0 16 16M56 144H24v-32h32zm104 16h48v48h-48Zm0-112h48v48h-48Z"/></svg>

<svg xmlns="http://www.w3.org/2000/svg" viewBox="0 0 256 256" fill="currentColor"><path d="M160,112h48a16,16,0,0,0,16-16V48a16,16,0,0,0-16-16H160a16,16,0,0,0-16,16V64H128a24,24,0,0,0-24,24v32H72v-8A16,16,0,0,0,56,96H24A16,16,0,0,0,8,112v32a16,16,0,0,0,16,16H56a16,16,0,0,0,16-16v-8h32v32a24,24,0,0,0,24,24h16v16a16,16,0,0,0,16,16h48a16,16,0,0,0,16-16V160a16,16,0,0,0-16-16H160a16,16,0,0,0-16,16v16H128a8,8,0,0,1-8-8V88a8,8,0,0,1,8-8h16V96A16,16,0,0,0,160,112ZM56,144H24V112H56v32Zm104,16h48v48H160Zm0-112h48V96H160Z"/></svg>
